Newaita-dark/apps/48/bittorrent-sync.svg

<svg height="48" viewBox="0 0 48 48" width="48" xmlns="http://www.w3.org/2000/svg" xmlns:xlink="http://www.w3.org/1999/xlink"><linearGradient id="a"><stop offset="0" stop-opacity=".313726"/><stop offset=".222222" stop-opacity=".27451"/><stop offset="1" stop-opacity="0"/></linearGradient><radialGradient id="b" cx="450.908936" cy="189.579361" gradientTransform="matrix(.00000026 -.117199 -.210958 -.00000015 66.784728 95.392994)" gradientUnits="userSpaceOnUse" r="21.166656" xlink:href="#a"/><radialGradient id="c" cx="450.908936" cy="189.579361" gradientTransform="matrix(-.00000026 .117199 .210958 .00000015 -19.155178 -11.291223)" gradientUnits="userSpaceOnUse" r="21.166656" xlink:href="#a"/><radialGradient id="d" cx="450.908936" cy="189.579361" gradientTransform="matrix(-.00000026 -.117199 .210958 -.00000015 -19.155178 95.392994)" gradientUnits="userSpaceOnUse" r="21.166656" xlink:href="#a"/><radialGradient id="e" cx="450.908936" cy="189.579361" gradientTransform="matrix(.00000026 .117199 -.210958 .00000015 66.784725 -11.291224)" gradientUnits="userSpaceOnUse" r="21.166656" xlink:href="#a"/><linearGradient id="f" gradientTransform="matrix(.0200401 0 0 .093759 18.698079 20.158175)" gradientUnits="userSpaceOnUse" x1="255.323059" x2="255.323044" y1="233.5" y2="254.666656"><stop offset="0" stop-opacity=".27451"/><stop offset="1" stop-opacity="0"/></linearGradient><linearGradient id="g" gradientUnits="userSpaceOnUse" x1="254" x2="254" y1="-168.666672" y2="233.5"><stop offset="0" stop-color="#7986cb"/><stop offset="1" stop-color="#5c6bc0"/></linearGradient><linearGradient id="h" gradientUnits="userSpaceOnUse" x1="23.814816" x2="23.814816" y1="42.05096580616" y2="4.34417306195"><stop offset="0" stop-color="#26c6da"/><stop offset="1" stop-color="#4dd0e1"/></linearGradient><path d="m27.289062 42.050781h3.96875v-1.984375h-3.96875zm0 0" fill="url(#b)"/><path d="m20.339844 42.050781h-3.96875v1.984375h3.96875zm0 0" fill="url(#c)"/><path d="m20.339844 42.050781h-3.96875v-1.984375h3.96875zm0 0" fill="url(#d)"/><path d="m27.289062 42.050781h3.96875v1.984375h-3.96875zm0 0" fill="url(#e)"/><path d="m20.339844 41.554688h6.949218v2.480468h-6.949218zm0 0" fill="url(#f)"/><path d="m254.017409-168.671091c111.031064 0 201.064133 90.033069 201.064133 201.105795 0 111.031064-90.033069 201.064133-201.064133 201.064133-111.072726 0-201.105795-90.033069-201.105795-201.064133 0-111.072726 90.033069-201.105795 201.105795-201.105795zm0 0" fill="url(#g)" stroke="#333" stroke-linecap="round" stroke-width="3" transform="matrix(.093759 0 0 .093759 0 20.158175)"/><path d="m23.816406 42.050781c-10.445312 0-18.855468-8.410156-18.855468-18.851562 0-.0625 0-.125 0-.1875.101562 10.359375 8.472656 18.667969 18.855468 18.667969 10.382813 0 18.753906-8.308594 18.851563-18.667969v.1875c0 10.441406-8.410157 18.851562-18.851563 18.851562zm0 0" fill-opacity=".196078"/><path d="m23.816406 4.34375c-10.445312 0-18.855468 8.410156-18.855468 18.855469v.183593c.101562-10.359374 8.472656-18.667968 18.855468-18.667968 10.382813 0 18.753906 8.308594 18.851563 18.667968 0-.0625 0-.125 0-.183593 0-10.445313-8.410157-18.855469-18.851563-18.855469zm0 0" fill="#fff" fill-opacity=".392157"/><path d="m23.816406 4.203125c-10.523437 0-18.996094 8.472656-18.996094 18.996094 0 10.519531 8.472657 18.992187 18.996094 18.992187 10.519532 0 18.992188-8.472656 18.992188-18.992187 0-10.523438-8.472656-18.996094-18.992188-18.996094zm0 .28125c10.367188 0 18.710938 8.34375 18.710938 18.714844 0 10.367187-8.34375 18.710937-18.710938 18.710937-10.371094 0-18.714844-8.34375-18.714844-18.710937 0-10.371094 8.34375-18.714844 18.714844-18.714844zm0 0" fill="#212121"/><path d="m23.757812 9.417969c-2.339843.007812-4.710937.613281-6.890624 1.871093-5.46875 3.160157-7.976563 9.425782-6.574219 15.253907.25 1.574219 3.324219.945312 2.726562-1.570313-.667969-4.320312 1.316407-8.78125 5.335938-11.105468 4.023437-2.320313 8.882812-1.808594 12.289062.929687 1.878907 1.777344 3.960938-.570313 2.722657-1.574219-2.617188-2.484375-6.074219-3.820312-9.609376-3.804687zm12.515626 9.820312c-.921876-.019531-2.046876.820313-1.660157 2.433594.664063 4.316406-1.316406 8.777344-5.339843 11.101563-4.023438 2.324218-8.878907 1.808593-12.285157-.925782-1.882812-1.78125-3.964843.566406-2.726562 1.570313 4.347656 4.128906 11.03125 5.089843 16.5 1.933593s7.976562-9.425781 6.574219-15.253906c-.089844-.566406-.542969-.847656-1.0625-.859375zm0 0" fill="url(#h)"/><path d="m23.757812 9.417969c-2.339843.007812-4.710937.613281-6.890624 1.871093-4.574219 2.644532-7.078126 7.460938-6.953126 12.378907.121094-4.664063 2.597657-9.152344 6.953126-11.667969 2.179687-1.257812 4.550781-1.859375 6.890624-1.871094 3.535157-.015625 6.992188 1.320313 9.609376 3.804688.148437.121094.25.265625.308593.417968.136719-.398437.066407-.824218-.308593-1.128906-2.617188-2.484375-6.074219-3.820312-9.609376-3.804687zm12.472657 9.820312c-.863281.007813-1.875.753907-1.667969 2.171875.160156-.976562.996094-1.472656 1.710938-1.460937.519531.011719.972656.292969 1.0625.859375.230468.953125.355468 1.917968.378906 2.875.03125-1.191406-.09375-2.398438-.378906-3.585938-.089844-.566406-.542969-.847656-1.0625-.859375-.015626 0-.027344 0-.042969 0zm-23.332031 4.425781c-.023438.671876.015624 1.347657.121093 2.019532.019531.089844.035157.175781.046875.257812.046875-.285156.039063-.605468-.046875-.96875-.070312-.4375-.109375-.871094-.121093-1.308594zm21.835937.023438c-.121094 3.640625-2.066406 7.125-5.460937 9.085938-4.023438 2.324218-8.878907 1.808593-12.285157-.925782-1.652343-1.5625-3.460937.058594-3.035156 1.15625.3125-.917968 1.722656-1.6875 3.035156-.445312 3.40625 2.734375 8.261719 3.25 12.285157.925781 3.617187-2.085937 5.585937-5.90625 5.460937-9.796875zm0 0" fill="#fff" fill-opacity=".392157"/><path d="m23.722656 12.429688c-1.824218.015624-3.667968.492187-5.367187 1.472656-3.660157 2.113281-5.632813 6.003906-5.453125 9.941406.164062-3.585938 2.101562-7.011719 5.453125-8.949219 4.023437-2.324219 8.882812-1.808593 12.289062.925781 1.714844 1.625 3.601563-.191406 2.96875-1.285156-.40625.847656-1.730469 1.464844-2.96875.292969-1.972656-1.582031-4.425781-2.417969-6.921875-2.398437zm10.867188 9.167968c-.074219.3125-.078125.679688.023437 1.097656.058594.386719.097657.773438.113281 1.160157.03125-.714844-.003906-1.433594-.113281-2.152344-.011719-.035156-.019531-.070313-.023437-.105469zm-24.671875 2.246094c-.042969 1.238281.078125 2.492188.375 3.726562.246093 1.550782 3.238281.960938 2.75-1.464843-.371094 1.566406-2.539063 1.785156-2.75.472656-.21875-.90625-.339844-1.820313-.375-2.734375zm27.792969.015625c-.167969 4.617187-2.636719 9.035156-6.949219 11.527344-5.46875 3.15625-12.152344 2.195312-16.5-1.933594-.105469-.085937-.1875-.183594-.246094-.285156-.210937.4375-.175781.933593.246094 1.277343 4.347656 4.128907 11.03125 5.089844 16.5 1.933594 4.617187-2.667968 7.125-7.554687 6.949219-12.519531zm0 0" fill-opacity=".235294"/><path d="m957.70387 379.648805c-94.321707.31493-189.903135 24.72205-277.768765 75.425872-220.4514 127.389416-321.544114 379.963735-265.014076 614.901942 10.077778 63.45851 134.002958 38.106599 109.910769-63.301045-26.926563-174.156607 53.065802-353.981963 215.097581-447.673809 162.189245-93.534379 358.076061-72.906427 495.38579 37.476739 75.740803 71.646705 159.6698-22.989932 109.753304-63.458511-105.501741-100.147922-244.858519-154.001049-387.364603-153.371188zm504.518776 395.867729c-37.161807-.787327-82.51181 33.06771-66.922746 98.100873 26.769098 173.999141-53.065802 353.824498-215.255046 447.516343-162.189245 93.691845-357.918596 72.906427-495.228325-37.319273-75.898268-71.80417-159.827265 22.832467-109.91077 63.301045 175.258864 166.440808 444.681968 205.177268 665.133369 77.945317 220.4514-127.231951 321.544114-379.963735 265.014076-614.901942-3.621701-22.832467-21.887675-34.169967-42.830558-34.642363zm0 0" fill="none" stroke="#212121" stroke-linecap="round" stroke-linejoin="round" stroke-width="11.338583" transform="scale(.0248071)"/></svg>

<?xml version="1.0" encoding="UTF-8"?>
<svg xmlns="http://www.w3.org/2000/svg" xmlns:xlink="http://www.w3.org/1999/xlink" width="48px" height="48px" viewBox="0 0 48 48" version="1.1">
<defs>
<radialGradient id="radial0" gradientUnits="userSpaceOnUse" cx="450.908936" cy="189.579361" fx="450.908936" fy="189.579361" r="21.166656" gradientTransform="matrix(0.000000261256,-0.117199,-0.210958,-0.000000152308,66.784728,95.392994)">
<stop offset="0" style="stop-color:rgb(0%,0%,0%);stop-opacity:0.313726;"/>
<stop offset="0.222222" style="stop-color:rgb(0%,0%,0%);stop-opacity:0.27451;"/>
<stop offset="1" style="stop-color:rgb(0%,0%,0%);stop-opacity:0;"/>
</radialGradient>
<radialGradient id="radial1" gradientUnits="userSpaceOnUse" cx="450.908936" cy="189.579361" fx="450.908936" fy="189.579361" r="21.166656" gradientTransform="matrix(-0.000000261256,0.117199,0.210958,0.000000152308,-19.155178,-11.291223)">
<stop offset="0" style="stop-color:rgb(0%,0%,0%);stop-opacity:0.313726;"/>
<stop offset="0.222222" style="stop-color:rgb(0%,0%,0%);stop-opacity:0.27451;"/>
<stop offset="1" style="stop-color:rgb(0%,0%,0%);stop-opacity:0;"/>
</radialGradient>
<radialGradient id="radial2" gradientUnits="userSpaceOnUse" cx="450.908936" cy="189.579361" fx="450.908936" fy="189.579361" r="21.166656" gradientTransform="matrix(-0.000000261256,-0.117199,0.210958,-0.000000152308,-19.155178,95.392994)">
<stop offset="0" style="stop-color:rgb(0%,0%,0%);stop-opacity:0.313726;"/>
<stop offset="0.222222" style="stop-color:rgb(0%,0%,0%);stop-opacity:0.27451;"/>
<stop offset="1" style="stop-color:rgb(0%,0%,0%);stop-opacity:0;"/>
</radialGradient>
<radialGradient id="radial3" gradientUnits="userSpaceOnUse" cx="450.908936" cy="189.579361" fx="450.908936" fy="189.579361" r="21.166656" gradientTransform="matrix(0.000000261256,0.117199,-0.210958,0.000000152308,66.784725,-11.291224)">
<stop offset="0" style="stop-color:rgb(0%,0%,0%);stop-opacity:0.313726;"/>
<stop offset="0.222222" style="stop-color:rgb(0%,0%,0%);stop-opacity:0.27451;"/>
<stop offset="1" style="stop-color:rgb(0%,0%,0%);stop-opacity:0;"/>
</radialGradient>
<linearGradient id="linear0" gradientUnits="userSpaceOnUse" x1="255.323059" y1="233.5" x2="255.323044" y2="254.666656" gradientTransform="matrix(0.0200401,0,0,0.093759,18.698079,20.158175)">
<stop offset="0" style="stop-color:rgb(0%,0%,0%);stop-opacity:0.27451;"/>
<stop offset="1" style="stop-color:rgb(0%,0%,0%);stop-opacity:0;"/>
</linearGradient>
<linearGradient id="linear1" gradientUnits="userSpaceOnUse" x1="254" y1="-168.666672" x2="254" y2="233.5" gradientTransform="matrix(1,0,0,1,0,0)">
<stop offset="0" style="stop-color:rgb(47.450981%,52.549022%,79.607844%);stop-opacity:1;"/>
<stop offset="1" style="stop-color:rgb(36.078432%,41.960785%,75.294119%);stop-opacity:1;"/>
</linearGradient>
<linearGradient id="linear2" gradientUnits="userSpaceOnUse" x1="960" y1="1695.118164" x2="960" y2="175.118134" gradientTransform="matrix(0.0248071,0,0,0.0248071,0,0.00000000000000282)">
<stop offset="0" style="stop-color:rgb(14.901961%,77.64706%,85.490197%);stop-opacity:1;"/>
<stop offset="1" style="stop-color:rgb(30.19608%,81.568629%,88.235295%);stop-opacity:1;"/>
</linearGradient>
</defs>
<g id="surface1">
<path style=" stroke:none;fill-rule:nonzero;fill:url(#radial0);" d="M 27.289062 42.050781 L 31.257812 42.050781 L 31.257812 40.066406 L 27.289062 40.066406 Z M 27.289062 42.050781 "/>
<path style=" stroke:none;fill-rule:nonzero;fill:url(#radial1);" d="M 20.339844 42.050781 L 16.371094 42.050781 L 16.371094 44.035156 L 20.339844 44.035156 Z M 20.339844 42.050781 "/>
<path style=" stroke:none;fill-rule:nonzero;fill:url(#radial2);" d="M 20.339844 42.050781 L 16.371094 42.050781 L 16.371094 40.066406 L 20.339844 40.066406 Z M 20.339844 42.050781 "/>
<path style=" stroke:none;fill-rule:nonzero;fill:url(#radial3);" d="M 27.289062 42.050781 L 31.257812 42.050781 L 31.257812 44.035156 L 27.289062 44.035156 Z M 27.289062 42.050781 "/>
<path style=" stroke:none;fill-rule:nonzero;fill:url(#linear0);" d="M 20.339844 41.554688 L 27.289062 41.554688 L 27.289062 44.035156 L 20.339844 44.035156 Z M 20.339844 41.554688 "/>
<path style="fill-rule:nonzero;fill:url(#linear1);stroke-width:3;stroke-linecap:round;stroke-linejoin:miter;stroke:rgb(20%,20%,20%);stroke-opacity:1;stroke-miterlimit:4;" d="M 254.017409 -168.671091 C 365.048473 -168.671091 455.081542 -78.638022 455.081542 32.434704 C 455.081542 143.465768 365.048473 233.498837 254.017409 233.498837 C 142.944683 233.498837 52.911614 143.465768 52.911614 32.434704 C 52.911614 -78.638022 142.944683 -168.671091 254.017409 -168.671091 Z M 254.017409 -168.671091 " transform="matrix(0.093759,0,0,0.093759,0,20.158175)"/>
<path style=" stroke:none;fill-rule:nonzero;fill:rgb(0%,0%,0%);fill-opacity:0.196078;" d="M 23.816406 42.050781 C 13.371094 42.050781 4.960938 33.640625 4.960938 23.199219 C 4.960938 23.136719 4.960938 23.074219 4.960938 23.011719 C 5.0625 33.371094 13.433594 41.679688 23.816406 41.679688 C 34.199219 41.679688 42.570312 33.371094 42.667969 23.011719 C 42.667969 23.074219 42.667969 23.136719 42.667969 23.199219 C 42.667969 33.640625 34.257812 42.050781 23.816406 42.050781 Z M 23.816406 42.050781 "/>
<path style=" stroke:none;fill-rule:nonzero;fill:rgb(100%,100%,100%);fill-opacity:0.392157;" d="M 23.816406 4.34375 C 13.371094 4.34375 4.960938 12.753906 4.960938 23.199219 C 4.960938 23.257812 4.960938 23.320312 4.960938 23.382812 C 5.0625 13.023438 13.433594 4.714844 23.816406 4.714844 C 34.199219 4.714844 42.570312 13.023438 42.667969 23.382812 C 42.667969 23.320312 42.667969 23.257812 42.667969 23.199219 C 42.667969 12.753906 34.257812 4.34375 23.816406 4.34375 Z M 23.816406 4.34375 "/>
<path style=" stroke:none;fill-rule:nonzero;fill:rgb(12.941177%,12.941177%,12.941177%);fill-opacity:1;" d="M 23.816406 4.203125 C 13.292969 4.203125 4.820312 12.675781 4.820312 23.199219 C 4.820312 33.71875 13.292969 42.191406 23.816406 42.191406 C 34.335938 42.191406 42.808594 33.71875 42.808594 23.199219 C 42.808594 12.675781 34.335938 4.203125 23.816406 4.203125 Z M 23.816406 4.484375 C 34.183594 4.484375 42.527344 12.828125 42.527344 23.199219 C 42.527344 33.566406 34.183594 41.910156 23.816406 41.910156 C 13.445312 41.910156 5.101562 33.566406 5.101562 23.199219 C 5.101562 12.828125 13.445312 4.484375 23.816406 4.484375 Z M 23.816406 4.484375 "/>
<path style=" stroke:none;fill-rule:nonzero;fill:url(#linear2);" d="M 23.757812 9.417969 C 21.417969 9.425781 19.046875 10.03125 16.867188 11.289062 C 11.398438 14.449219 8.890625 20.714844 10.292969 26.542969 C 10.542969 28.117188 13.617188 27.488281 13.019531 24.972656 C 12.351562 20.652344 14.335938 16.191406 18.355469 13.867188 C 22.378906 11.546875 27.238281 12.058594 30.644531 14.796875 C 32.523438 16.574219 34.605469 14.226562 33.367188 13.222656 C 30.75 10.738281 27.292969 9.402344 23.757812 9.417969 Z M 36.273438 19.238281 C 35.351562 19.21875 34.226562 20.058594 34.613281 21.671875 C 35.277344 25.988281 33.296875 30.449219 29.273438 32.773438 C 25.25 35.097656 20.394531 34.582031 16.988281 31.847656 C 15.105469 30.066406 13.023438 32.414062 14.261719 33.417969 C 18.609375 37.546875 25.292969 38.507812 30.761719 35.351562 C 36.230469 32.195312 38.738281 25.925781 37.335938 20.097656 C 37.246094 19.53125 36.792969 19.25 36.273438 19.238281 Z M 36.273438 19.238281 "/>
<path style=" stroke:none;fill-rule:nonzero;fill:rgb(100%,100%,100%);fill-opacity:0.392157;" d="M 23.757812 9.417969 C 21.417969 9.425781 19.046875 10.03125 16.867188 11.289062 C 12.292969 13.933594 9.789062 18.75 9.914062 23.667969 C 10.035156 19.003906 12.511719 14.515625 16.867188 12 C 19.046875 10.742188 21.417969 10.140625 23.757812 10.128906 C 27.292969 10.113281 30.75 11.449219 33.367188 13.933594 C 33.515625 14.054688 33.617188 14.199219 33.675781 14.351562 C 33.8125 13.953125 33.742188 13.527344 33.367188 13.222656 C 30.75 10.738281 27.292969 9.402344 23.757812 9.417969 Z M 36.230469 19.238281 C 35.367188 19.246094 34.355469 19.992188 34.5625 21.410156 C 34.722656 20.433594 35.558594 19.9375 36.273438 19.949219 C 36.792969 19.960938 37.246094 20.242188 37.335938 20.808594 C 37.566406 21.761719 37.691406 22.726562 37.714844 23.683594 C 37.746094 22.492188 37.621094 21.285156 37.335938 20.097656 C 37.246094 19.53125 36.792969 19.25 36.273438 19.238281 C 36.257812 19.238281 36.246094 19.238281 36.230469 19.238281 Z M 12.898438 23.664062 C 12.875 24.335938 12.914062 25.011719 13.019531 25.683594 C 13.039062 25.773438 13.054688 25.859375 13.066406 25.941406 C 13.113281 25.65625 13.105469 25.335938 13.019531 24.972656 C 12.949219 24.535156 12.910156 24.101562 12.898438 23.664062 Z M 34.734375 23.6875 C 34.613281 27.328125 32.667969 30.8125 29.273438 32.773438 C 25.25 35.097656 20.394531 34.582031 16.988281 31.847656 C 15.335938 30.285156 13.527344 31.90625 13.953125 33.003906 C 14.265625 32.085938 15.675781 31.316406 16.988281 32.558594 C 20.394531 35.292969 25.25 35.808594 29.273438 33.484375 C 32.890625 31.398438 34.859375 27.578125 34.734375 23.6875 Z M 34.734375 23.6875 "/>
<path style=" stroke:none;fill-rule:nonzero;fill:rgb(0%,0%,0%);fill-opacity:0.235294;" d="M 23.722656 12.429688 C 21.898438 12.445312 20.054688 12.921875 18.355469 13.902344 C 14.695312 16.015625 12.722656 19.90625 12.902344 23.84375 C 13.066406 20.257812 15.003906 16.832031 18.355469 14.894531 C 22.378906 12.570312 27.238281 13.085938 30.644531 15.820312 C 32.359375 17.445312 34.246094 15.628906 33.613281 14.535156 C 33.207031 15.382812 31.882812 16 30.644531 14.828125 C 28.671875 13.246094 26.21875 12.410156 23.722656 12.429688 Z M 34.589844 21.597656 C 34.515625 21.910156 34.511719 22.277344 34.613281 22.695312 C 34.671875 23.082031 34.710938 23.46875 34.726562 23.855469 C 34.757812 23.140625 34.722656 22.421875 34.613281 21.703125 C 34.601562 21.667969 34.59375 21.632812 34.589844 21.597656 Z M 9.917969 23.84375 C 9.875 25.082031 9.996094 26.335938 10.292969 27.570312 C 10.539062 29.121094 13.53125 28.53125 13.042969 26.105469 C 12.671875 27.671875 10.503906 27.890625 10.292969 26.578125 C 10.074219 25.671875 9.953125 24.757812 9.917969 23.84375 Z M 37.710938 23.859375 C 37.542969 28.476562 35.074219 32.894531 30.761719 35.386719 C 25.292969 38.542969 18.609375 37.582031 14.261719 33.453125 C 14.15625 33.367188 14.074219 33.269531 14.015625 33.167969 C 13.804688 33.605469 13.839844 34.101562 14.261719 34.445312 C 18.609375 38.574219 25.292969 39.535156 30.761719 36.378906 C 35.378906 33.710938 37.886719 28.824219 37.710938 23.859375 Z M 37.710938 23.859375 "/>
<path style="fill:none;stroke-width:11.338583;stroke-linecap:round;stroke-linejoin:round;stroke:rgb(12.941177%,12.941177%,12.941177%);stroke-opacity:1;stroke-miterlimit:4;" d="M 957.70387 379.648805 C 863.382163 379.963735 767.800735 404.370855 679.935105 455.074677 C 459.483705 582.464093 358.390991 835.038412 414.921029 1069.976619 C 424.998807 1133.435129 548.923987 1108.083218 524.831798 1006.675574 C 497.905235 832.518967 577.8976 652.693611 739.929379 559.001765 C 902.118624 465.467386 1098.00544 486.095338 1235.315169 596.478504 C 1311.055972 668.125209 1394.984969 573.488572 1345.068473 533.019993 C 1239.566732 432.872071 1100.209954 379.018944 957.70387 379.648805 Z M 1462.222646 775.516534 C 1425.060839 774.729207 1379.710836 808.584244 1395.2999 873.617407 C 1422.068998 1047.616548 1342.234098 1227.441905 1180.044854 1321.13375 C 1017.855609 1414.825595 822.126258 1394.040177 684.816529 1283.814477 C 608.918261 1212.010307 524.989264 1306.646944 574.905759 1347.115522 C 750.164623 1513.55633 1019.587727 1552.29279 1240.039128 1425.060839 C 1460.490528 1297.828888 1561.583242 1045.097104 1505.053204 810.158897 C 1501.431503 787.32643 1483.165529 775.98893 1462.222646 775.516534 Z M 1462.222646 775.516534 " transform="matrix(0.0248071,0,0,0.0248071,0,0)"/>
</g>
</svg>
